X:472
T: Es fliegen zwei Schwlbelein (5-68), S. 111
N: P0742
O: Lothringen
S: MERKELBACH-PINCK, Angelika: Verklingende Weisen, Bd 5, Kassel 1962]
R: Liebe, Tod]
M: 4/4
L: 1/8
K: C
C2 | C2EGG3E | E2CCc2A2 | A2G2G4z2
C2 | C2EGG4 | EDC2c2A2 | A2G2G4z2
G2 | GAB2c3e | d4cBA2 | G3AG4z2
c2 | G2E2G3A | G4F2G2 | E4z2
G2 | GAB2c3e | d4cBA2 | G3AG4z2
c2 | G2E2G3A | G4F2G2 | E4z2

